icons/Targeticons.svg

<svg width="16" height="16" viewBox="0 0 16 16" fill="none" xmlns="http://www.w3.org/2000/svg">
<g clip-path="url(#clip0_4_2430)">
<path d="M7.99423 16C3.58556 16 0 12.4106 0 8.00282C0 3.58942 3.60811 4.84288e-07 8.0506 4.84288e-07C8.85679 4.84288e-07 9.62352 0.11852 10.3169 0.349913C10.4297 0.389419 10.4861 0.507938 10.4523 0.615169C10.4184 0.728044 10.2944 0.784479 10.1873 0.750617C9.53331 0.530511 8.81733 0.423281 8.05624 0.423281C3.85053 0.423281 0.428463 3.82081 0.428463 7.99718C0.428463 12.1735 3.82235 15.5711 7.99986 15.5711C12.1717 15.5711 15.5713 12.1735 15.5713 7.99718C15.5713 7.26914 15.436 6.45079 15.1879 5.63245C15.1541 5.51958 15.2161 5.40106 15.3288 5.3672C15.4416 5.33334 15.56 5.39542 15.5938 5.50829C15.8588 6.36614 15.9997 7.22963 15.9997 7.99718C15.9885 12.4162 12.4029 16 7.99423 16Z" fill="#3D3D3D"/>
<path d="M7.99422 13.2966C5.11336 13.2966 2.76245 10.9488 2.76245 8.05924C2.76245 5.17529 5.10773 2.82185 7.99422 2.82185C8.60872 2.82185 9.11048 2.90086 9.4882 3.06453C9.59532 3.10968 9.64606 3.23384 9.60095 3.34108C9.55585 3.44831 9.42619 3.4991 9.32471 3.45395C9.00336 3.3185 8.55798 3.24513 7.99985 3.24513C5.35015 3.24513 3.19092 5.40104 3.19092 8.0536C3.19092 10.7062 5.34451 12.8677 7.99985 12.8677C10.6496 12.8677 12.8032 10.7118 12.8032 8.0536C12.8032 7.56824 12.7186 7.10545 12.5325 6.54108C12.4931 6.4282 12.5551 6.30968 12.6679 6.27582C12.7806 6.23631 12.899 6.2984 12.9328 6.41127C13.1301 7.00951 13.226 7.53437 13.226 8.05924C13.2203 10.9432 10.8751 13.2966 7.99422 13.2966Z" fill="#3D3D3D"/>
<path d="M7.99424 10.4747C6.63556 10.4747 5.52493 9.36851 5.52493 8.00273C5.52493 6.64258 6.62992 5.53077 7.99424 5.53077C8.11263 5.53077 8.20847 5.62671 8.20847 5.74523C8.20847 5.86375 8.11263 5.95969 7.99424 5.95969C6.8667 5.95969 5.9534 6.87962 5.9534 8.00273C5.9534 9.13147 6.87234 10.0458 7.99424 10.0458C9.11613 10.0458 10.0407 9.12583 10.0407 8.00273C10.0407 7.88421 10.1366 7.78826 10.2549 7.78826C10.3733 7.78826 10.4692 7.88421 10.4692 8.00273C10.4635 9.36287 9.35292 10.4747 7.99424 10.4747Z" fill="#3D3D3D"/>
<path d="M11.8109 4.12551H13.5417L15.092 2.53398L13.5812 2.57348C13.5191 2.56784 13.4684 2.55091 13.4233 2.5114C13.3838 2.4719 13.3613 2.41546 13.3613 2.35338L13.4007 0.852144L11.8109 2.44368V4.12551ZM7.99421 8.21722C7.93784 8.21722 7.8871 8.19465 7.84763 8.15514C7.76307 8.07048 7.76307 7.94068 7.84763 7.85602L11.3937 4.24967V2.35902C11.3937 2.30258 11.4163 2.25179 11.4557 2.20664L13.4853 0.174896C13.5473 0.112815 13.6375 0.0958807 13.7165 0.129743C13.7954 0.163606 13.8461 0.242618 13.8461 0.327274L13.7954 2.13327L15.5994 2.08248C15.7066 2.07684 15.7629 2.12763 15.7968 2.20664C15.8306 2.28565 15.8137 2.37595 15.7517 2.43803L13.7785 4.46978C13.739 4.50929 13.6826 4.53186 13.6263 4.53186H11.6869L8.14079 8.13821C8.10133 8.19465 8.05059 8.21722 7.99421 8.21722Z" fill="#3D3D3D"/>
</g>
<defs>
<clipPath id="clip0_4_2430">
<rect width="16" height="16" fill="white"/>
</clipPath>
</defs>
</svg>

<svg xmlns="http://www.w3.org/2000/svg" width="16" height="16" fill="currentColor" class="si si-Targeticons" viewBox="0 0 16 16">
  <g clip-path="url(#a)">
    <path d="M7.994 16C3.586 16 0 12.41 0 8.003 0 3.589 3.608 0 8.05 0a7.2 7.2 0 0 1 2.267.35c.113.04.17.158.135.265a.21.21 0 0 1-.265.136 6.7 6.7 0 0 0-2.13-.328C3.85.423.427 3.821.427 7.997S3.822 15.571 8 15.571c4.172 0 7.571-3.397 7.571-7.574 0-.728-.135-1.546-.383-2.365a.212.212 0 1 1 .406-.124c.265.858.406 1.722.406 2.49C15.989 12.415 12.403 16 7.994 16"/>
    <path d="M7.994 13.297a5.24 5.24 0 0 1-5.232-5.238 5.24 5.24 0 0 1 5.232-5.237c.615 0 1.116.079 1.494.243a.21.21 0 0 1 .113.276.213.213 0 0 1-.276.113c-.322-.136-.767-.209-1.325-.209a4.815 4.815 0 0 0-4.81 4.809A4.816 4.816 0 0 0 8 12.868a4.81 4.81 0 0 0 4.803-4.814c0-.486-.084-.949-.27-1.513a.205.205 0 0 1 .135-.265.204.204 0 0 1 .265.135c.197.599.293 1.123.293 1.648-.006 2.884-2.35 5.238-5.232 5.238"/>
    <path d="M7.994 10.475a2.474 2.474 0 0 1-2.47-2.472 2.474 2.474 0 0 1 2.47-2.472.214.214 0 0 1 0 .429c-1.127 0-2.04.92-2.04 2.043 0 1.128.918 2.043 2.04 2.043s2.047-.92 2.047-2.043a.214.214 0 1 1 .428 0 2.486 2.486 0 0 1-2.475 2.472"/>
    <path d="M11.81 4.126h1.732l1.55-1.592-1.51.04a.26.26 0 0 1-.159-.063.22.22 0 0 1-.062-.158l.04-1.5-1.59 1.59zM7.995 8.217a.2.2 0 0 1-.146-.062.21.21 0 0 1 0-.299l3.546-3.606V2.359q.001-.084.062-.152l2.03-2.032a.21.21 0 0 1 .23-.045c.08.034.13.113.13.197l-.05 1.806 1.803-.05c.108-.006.164.045.198.124a.21.21 0 0 1-.045.231L13.778 4.47a.22.22 0 0 1-.152.062h-1.94L8.142 8.138a.17.17 0 0 1-.147.08"/>
  </g>
  <defs>
    <clipPath id="a">
      <path d="M0 0h16v16H0z"/>
    </clipPath>
  </defs>
</svg>
